X: 36090
T: Sceiligin
R: jig
M: 6/8
K: Dmajor
B|:ABA AFD|ABA FED|GFG BAB|Ace d2f/d/|
ABA AFD|ABA FED|~G3 ~B3|1 Ace d2f/d/:|2 Ace d2e||
|:faf dfd|ABA AFD|faf def|efe ecA|
dfd BdB|ABA FED|GFG BAB|Ace d2e:|

